dhis-2/dhis-support/dhis-support-system/src/main/resources/SVGs/hot_meal_outline.svg

<svg width="48" height="48" viewBox="0 0 48 48" fill="none" xmlns="http://www.w3.org/2000/svg">
<path fill-rule="evenodd" clip-rule="evenodd" d="M5.73422 4C7.2934 9.87863 1.15208 7.84495 5.73422 12.9999C3.42505 8.52744 10.3164 9.15494 5.73422 4ZM11.8396 4C13.3988 9.87863 7.2575 7.84495 11.8396 12.9999C9.53048 8.52744 16.4218 9.15494 11.8396 4ZM17.9431 4C19.5022 9.87863 13.3609 7.84495 17.9431 12.9999C15.6339 8.52744 22.5252 9.15494 17.9431 4ZM24.0485 4C25.6077 9.87863 19.4664 7.84495 24.0485 12.9999C21.7393 8.52744 28.6306 9.15494 24.0485 4ZM30.1519 4C31.7111 9.87863 25.5698 7.84495 30.1519 12.9999C27.8427 8.52744 34.7341 9.15494 30.1519 4ZM36.2573 4C37.8165 9.87863 31.6752 7.84495 36.2573 12.9999C33.9482 8.52744 40.8395 9.15494 36.2573 4ZM42.3608 4C43.9199 9.87863 37.7786 7.84495 42.3608 12.9999C40.0516 8.52744 46.9429 9.15494 42.3608 4ZM4.04424 16.9998C4.51314 27.6847 13.3052 36.1096 24.001 36.1226C34.7009 36.1166 43.4997 27.6897 43.9697 16.9998H4.04424ZM4.55841 17.4977L43.4559 17.5137C43.0979 25.8986 35.708 35.0745 23.8452 35.6095C12.4713 35.5555 4.9154 25.8786 4.55841 17.4977ZM4.13011 39.9994C4.05671 39.9994 3.99731 40.0584 3.99731 40.1324V43.8667C3.99731 43.9407 4.05671 43.9997 4.13011 43.9997H43.8636C43.9376 43.9997 43.9966 43.9407 43.9966 43.8667V40.1324C43.9966 40.0584 43.9376 39.9994 43.8636 39.9994H4.13011ZM4.51097 40.513H43.4805V43.491H4.51097V40.513Z" fill="#333333"/>
</svg>

<?xml version="1.0" encoding="UTF-8" standalone="no"?>
<!-- Created with Inkscape (http://www.inkscape.org/) -->
<svg id="svg8" xmlns:rdf="http://www.w3.org/1999/02/22-rdf-syntax-ns#" xmlns="http://www.w3.org/2000/svg" xmlns:osb="http://www.openswatchbook.org/uri/2009/osb" height="48" width="48" version="1.1" xmlns:cc="http://creativecommons.org/ns#" viewBox="0 0 12.7 12.7" xmlns:dc="http://purl.org/dc/elements/1.1/">
 <title id="title4753">UIO-icon</title>
 <metadata id="metadata5">
  <rdf:RDF>
   <cc:Work rdf:about="">
    <dc:format>image/svg+xml</dc:format>
    <dc:type rdf:resource="http://purl.org/dc/dcmitype/StillImage"/>
    <dc:title>UIO-icon</dc:title>
    <dc:creator>
     <cc:Agent>
      <dc:title>Joaquín Urbano</dc:title>
     </cc:Agent>
    </dc:creator>
    <dc:rights>
     <cc:Agent>
      <dc:title>GPL</dc:title>
     </cc:Agent>
    </dc:rights>
   </cc:Work>
  </rdf:RDF>
 </metadata>
 <g id="layer1" transform="translate(0,-284.3)" fill="#333">
  <path id="path890" d="m5.7344 4c1.5592 5.8787-4.5822 3.845 0 9-2.3092-4.4725 4.5822-3.845 0-9zm6.1055 0c1.5592 5.8787-4.5822 3.845 0 9-2.3092-4.4725 4.5822-3.845 0-9zm6.1035 0c1.5592 5.8787-4.5822 3.845 0 9-2.3092-4.4725 4.5822-3.845 0-9zm6.1055 0c1.5592 5.8787-4.5822 3.845 0 9-2.3092-4.4725 4.5822-3.845 0-9zm6.1035 0c1.5592 5.8787-4.5822 3.845 0 9-2.3092-4.4725 4.5822-3.845 0-9zm6.1055 0c1.5592 5.8787-4.5822 3.845 0 9-2.3092-4.4725 4.5822-3.845 0-9zm6.1035 0c1.5592 5.8787-4.5822 3.845 0 9-2.3092-4.4725 4.5822-3.845 0-9zm-38.317 13c0.4689 10.685 9.2611 19.11 19.957 19.123 10.7-0.006 19.499-8.433 19.969-19.123zm0.51417 0.49782 38.898 0.016083c-0.358 8.385-7.748 17.561-19.611 18.096-11.374-0.054-18.93-9.731-19.287-18.112zm-0.4283 22.502c-0.0734 0-0.1328 0.059-0.1328 0.133v3.7344c0 0.074 0.0594 0.133 0.1328 0.133h39.734c0.074 0 0.133-0.059 0.133-0.133v-3.7344c0-0.074-0.059-0.133-0.133-0.133zm0.38086 0.51367h38.97v2.978h-38.97z" fill-rule="evenodd" transform="matrix(.26458 0 0 .26458 0 284.3)"/>
 </g>
</svg>
